X: 68
T: Piano Sonata no. 21 in C major, allegro con brio
C: Ludwig van Beethoven
%%abc-version 2.0
%%abcx-abcm2ps-target-version 5.9.1 (29 Sep 2008)
%%abc-creator hum2abc beta
%%abcx-conversion-date 2021/01/11 11:42:09
%%abc-edited-by Craig Stuart Sapp
%%abcx-initial-encoding-date 2004/04/04/
%%gracespace 0 6 6
%%humdrum-veritas 3585951022
%%humdrum-veritas-data 1408015097
%%linebreak <none>
%%barnumbers 0
L: 1/16
M: 4/4
Q: "Allegro con brio" 1/4=144
%%staves {1 2}
V: 1 clef=bass
V: 2 clef=bass
K: C
[V:1] [K:clef=bass][M:4/4]z2 [C,2E,2][C,2E,2][C,2E,2] [C,2E,2][C,2E,2][C,2E,2][C,2E,2] | 
[V:2] [K:clef=bass][M:4/4]C,,2[C,,2G,,2][C,,2G,,2][C,,2G,,2] [C,,2G,,2][C,,2G,,2][C,,2G,,2][C,,2G,,2] | 
[V:1] [C,2E,2][C,2E,2][C,2E,2][C,2E,2] [C,2E,2][C,2E,2][D,2^F,2][D,2F,2] ]|:  
[V:2] [C,,2G,,2][C,,2G,,2][C,,2G,,2][C,,2G,,2] [C,,2G,,2][C,,2G,,2][C,,2A,,2][C,,2A,,2] ]|:  
[V:1] [D,6G,6]B,A, z2 .G,2z4[K:clef=treble] | 
[V:2] [B,,,2G,,2][B,,,2G,,2][B,,,2G,,2][B,,,2G,,2] [B,,,2G,,2][B,,,2G,,2][B,,,2G,,2][B,,,2G,,2] | 
[V:1] d'4-d'c'ba.g4z4[K:clef=bass] | 
[V:2] [B,,,2G,,2][B,,,2G,,2][B,,,2G,,2][B,,,2G,,2] [B,,,2G,,2][B,,,2G,,2][B,,,2G,,2][B,,,2G,,2] | 
[V:1] [_B,,2D,2][B,,2D,2][B,,2D,2][B,,2D,2] [B,,2D,2][B,,2D,2][B,,2D,2][B,,2D,2] | 
[V:2] [_B,,,2F,,2][B,,,2F,,2][B,,,2F,,2][B,,,2F,,2] [B,,,2F,,2][B,,,2F,,2][B,,,2F,,2][B,,,2F,,2] | 
[V:1] [_B,,2D,2][B,,2D,2][B,,2D,2][B,,2D,2] [B,,2D,2][B,,2D,2][C,2E,2][C,2E,2] | 
[V:2] [_B,,,2F,,2][B,,,2F,,2][B,,,2F,,2][B,,,2F,,2] [B,,,2F,,2][B,,,2F,,2][B,,,2G,,2][B,,,2G,,2] | 
[V:1] [C,6F,6]A,G, z2z4.F,2[K:clef=treble] | 
[V:2] [A,,,2F,,2][A,,,2F,,2][A,,,2F,,2][A,,,2F,,2] [A,,,2F,,2][A,,,2F,,2][A,,,2F,,2][A,,,2F,,2] | 
[V:1] c'4-c'_b_ag.f4z4 | 
[V:2] [_A,,,2F,,2][A,,,2F,,2][A,,,2F,,2][A,,,2F,,2] [A,,,2F,,2][A,,,2F,,2][A,,,2F,,2][A,,,2F,,2] | 
[V:1] f'12f'_e'd'c' | 
[V:2] [G,,,2F,,2][G,,,2F,,2][G,,,2F,,2][G,,,2F,,2] [G,,,2F,,2][G,,,2F,,2][_A,,,2F,,2][A,,,2F,,2] | 
[V:1] bc'd'_e' f'e'd'c' bc'd'e' f'e'd'c' | 
[V:2] [G,,,2F,,2][G,,,2F,,2][_A,,,2F,,2][A,,,2F,,2] [G,,,2F,,2][G,,,2F,,2][A,,,2F,,2][A,,,2F,,2] | 
[V:1] bc'd'_e' f'e'd'c' b_agf _edcB | 
[V:2] [G,,,4F,,4][G,,8G,8]-[G,,2G,2]A,B, | 
[V:1] c2 z2 G2 z2 _E2 z2 C2 z2 | 
[V:2] !wedge!C2 z2 [G,,2G,2] z2 [_E,,2_E,2] z2 [C,,2C,2] z2 | 
[V:1] !fermata!G,16 | 
[V:2] !fermata![G,,,16G,,16] | 
[V:1] ECEC ECEC ECEC ECEC | 
[V:2] [C,,2C,2] C,G, C,G,C,G, C,G,C,G, C,G,C,G, | 
[V:1] ECEC ECEC ECEC ^FDFD | 
[V:2] C,G,C,G, C,G,C,G, C,G,C,G, C,A,C,A, | 
[V:1] G6BA .G2 z2z4 | 
[V:2] [B,,D,]G,[B,,D,]G, [B,,D,]G,[B,,D,]G, [B,,D,]G,[B,,D,]G, [B,,D,]G,[B,,D,]G, | 
[V:1] d'4-d'c'ba.g4z4 | 
[V:2] [B,,D,]G,[B,,D,]G, [B,,D,]G,[B,,D,]G, [B,,D,]G,[B,,D,]G, [B,,D,]G,[B,,D,]G, | 
[V:1] FDFD FDFD FDFD FDFD | 
[V:2] [D,,2D,2] D,A, D,A,D,A, D,A,D,A, D,A,D,A, | 
[V:1] FDFD FDFD FDFD ^GEGE | 
[V:2] D,A,D,A, D,A,D,A, D,A,D,A, D,B,D,B, | 
[V:1] A6cB .A2 z2z4 | 
[V:2] [C,E,]A,[C,E,]A, [C,E,]A,[C,E,]A, [C,E,]A,[C,E,]A, [C,E,]A,[C,E,]A, | 
[V:1] e'4-e'd'c'bz4.a4 | 
[V:2] [C,E,]A,[C,E,]A, [C,E,]A,[C,E,]A, [C,E,]A,[C,E,]A, [C,E,]A,[C,E,]A, | 
[V:1] .e'4-e'd'c'b.^a4z4 | 
[V:2] [C,E,]^A,[C,E,]A, [C,E,]A,[C,E,]A, [C,E,]A,[C,E,]A, [C,E,]A,[C,E,]A, | 
[V:1] b4-bag^f gfe^d egfe | 
[V:2] B,,^D,^F,B, B,,D,F,B, B,,E,G,B, B,,E,G,B, | 
[V:1] ^d^cB^A Bc=d^d ede^f g^ga^a | 
[V:2] B,,^F,A,B, B,,F,A,B, B,,E,G,B, B,,E,G,B, | 
[V:1] b^aba b=ag^f gfe^d egfe | 
[V:2] B,,^D,^F,B, B,,D,F,B, B,,E,G,B, B,,E,G,B, | 
[V:1] ^d^cB^A Bc=d^d ede^f g^ga^a | 
[V:2] B,,^F,A,B, B,,F,A,B, B,,E,G,B, B,,E,G,B, | 
[V:1] b^f^dB ^ABeg bfdB ABeg | 
[V:2] B,,^D,^F,B, ^A,B,G,E, B,,D,F,B, A,B,G,E, | 
[V:1] b^f^dB bgeB bfdB bgeB | 
[V:2] B,,^D,^F,B, B,,E,G,B, B,,D,F,B, B,,E,G,B, | 
[V:1] b^f^dB fdB^F dBF^D BFDB,[K:clef=bass] | 
[V:2] [B,,4^D,4^F,4B,4]z4z8 | 
[V:1] ^F^DB,^F, DB,F,^D, B,F,D,B,,z4[K:clef=treble] | 
[V:2] z8z4B,,,^D,,^F,,B,, | 
[V:1] z8!wedge!B2!wedge!B,2!wedge!^c2!wedge!^C2 | 
[V:2] !wedge!B,,,2!wedge!B,,2!wedge!^C,,2!wedge!^C,2 !wedge!^D,,2!wedge!^D,2z4 | 
[V:1] !wedge!^d2!wedge!^D2z4!wedge!d2!wedge!D2!wedge!e2!wedge!E2 | 
[V:2] !wedge!^D,,2!wedge!^D,2!wedge!E,,2!wedge!E,2 !wedge!^F,,2!wedge!^F,2z4 | 
[V:1] !wedge!^f2!wedge!^F2!wedge!^g2!wedge!^G2 !wedge!a2!wedge!A2!wedge!a2!wedge!B2 | 
[V:2] z8!wedge!^F,,2!wedge!^F,2!wedge!^G,,2!wedge!^G,2 | 
[V:1] !wedge!a2!wedge!^c2!wedge!a2!wedge!^d2 !wedge!a2!wedge!e2!wedge!a2!wedge!^f2 | 
[V:2] !wedge!A,,2!wedge!A,2!wedge!B,,2!wedge!B,2 !wedge!^C,2!wedge!^C2!wedge!^D,2!wedge!^D2[K:clef=treble] | 
[V:1] [B8e8^g8][A4^d4^f4][^G4^c4e4] | 
[V:2] [E8^G8][B,4^D4^F4][^C4E4] | 
[V:1] [^F8^B8^d8][E8^c8] | 
[V:2] [^G,8^B,8^D8][A,8^C8][K:clef=bass] | 
[V:1] [A8B8^d8][B4e4][^c4e4^f4] | 
[V:2] [^F,8A,8B,8^D8][^G,4B,4E4][A,4^C4^F4][K:clef=treble] | 
[V:1] [e8^g8][^d8^f8] & B12A4 | 
[V:2] [E8^G8][^D8^F8][K:clef=bass] & B,16 | 
[V:1] [B,8E8^G8][A,4^D4^F4][^G,4^C4E4] | 
[V:2] [E,8^G,8][B,,4^D,4^F,4][^C,4E,4] | 
[V:1] [^D,8^F,8^B,8^D8][E,8A,8^C8] | 
[V:2] [^G,,8^B,,8][A,,8^C,8] | 
[V:1] B,8^C4^D4 | 
[V:2] [E,4^G,4][^F,12A,12] & [B,,,16B,,16] | 
[V:1] (3.[^G,2E2].^F2.^G2 (3.A2.B2.^c2 (3.d2^d2.e2 (3.^e2.^f2.^^f2 | 
[V:2] [E,,4E,4]z4z8[K:clef=treble] | 
[V:1] (3^g2^^f2g2 (3a2f2g2 (3A2g2^f2 (3^G2f2e2 & B8A4^G4 | 
[V:2] [E8^G8][B,4^D4^F4][^C4E4] | 
[V:1] (3^F2^B2^d2 (3e2B2d2 (3E2A2^c2 (3d2A2c2 & ^F8E8 | 
[V:2] [^G,8^B,8^D8][A,8^C8][K:clef=bass] | 
[V:1] (3A2^^c2^d2 (3e2c2d2 (3B2^f2e2 (3^c2^g2f2 & A8B4^c4 | 
[V:2] [^F,8A,8B,8^D8][^G,4B,4E4][A,4^C4^F4][K:clef=treble] | 
[V:1] (3^g2^^f2g2 (3b2a2g2 (3^f2e2d2 (3c2B2A2 & e8(3^d2^c2B2 (3A2^G2^F2 | 
[V:2] [E8^G8][^D4^F4][K:clef=bass](3B,,2^C,2^D,2 & B,12z4 | 
[V:1] (3^G2^^F2G2 (3A2F2G2 (3A,2G2^F2 (3^G,2F2E2[K:clef=bass] & B,8A,4^G,4 | 
[V:2] [E,8^G,8][B,,4^D,4^F,4][^C,4E,4] | 
[V:1] (3^F,2^B,2^D2 (3E2B,2D2 (3E,2A,2^C2 (3D2A,2C2 & ^F,8E,8 | 
[V:2] [^G,,8^B,,8^D,8][A,,8^C,8] | 
[V:1] (3E,2^G,2B,2 (3^F,2A,2B,2 (3F,2A,2^C2 (3F,2A,2^D2[K:clef=treble] & E,4^F,4F,4F,4 | 
[V:2] [B,,,16B,,16] | 
[V:1] (3[^G,2E2]B,2G,2 (3B,2E2^G2 (3^F2^D2B,2 (3D2F2A2 | 
[V:2] [E,,4E,4]B,,8B,,4- | 
[V:1] (3^G2E2B,2 (3E2G2B2 (3A2^F2^D2 (3^d2A2F2 | 
[V:2] B,,4B,,8B,,4 | 
[V:1] [^G4e4]B8B4- | 
[V:2] (3E,2B,,2^G,,2 (3B,,2E,2^G,2 (3^F,2^D,2B,,2 (3D,2F,2A,2 | 
[V:1] B4B8B4 | 
[V:2] (3^G,2E,2B,,2 (3E,2G,2B,2 (3A,2^F,2^D,2 (3^D2A,2F,2 | 
[V:1] (3e2B2^G2 (3B2e2^g2 (3^f2^d2B2 (3d2f2a2 | 
[V:2] (3^G,2B,2E2 (3B,2G,2E,2 (3^D,2^F,2A,2 (3F,2D,2B,,2 | 
[V:1] (3^g2e2B2 (3e2g2b2 (3a2^f2^d2 (3^d'2b2f2 | 
[V:2] (3E,2^G,2B,2 (3G,2E,2B,,2 (3^F,2A,2B,2 (3A,2B,2^F2 | 
[V:1] (3e'2b2^g2 (3b2g2e2 (3a2^f2^d2 (3^d'2b2f2 | 
[V:2] (3^G,2B,2E2 (3E,2G,2B,2 (3^F,2A,2B,2 (3A,2B,2^F2 | 
[V:1] (3e'2b2^g2 (3b2g2e2 (3a2^f2^d2 (3^d'2b2f2 | 
[V:2] (3^G,2B,2E2 (3E,2G,2B,2 (3^F,2A,2B,2 (3A,2B,2^F2 | 
[V:1] e'b^ge a^f^d'b e'bge afd'b | 
[V:2] ^G,B,E,B, ^F,B,A,B, G,B,E,B, F,B,A,B, | 
[V:1] e'b^d'b e'bd'b e'bd'b e'bd'b | 
[V:2] ^G,B,A,B, G,B,A,B, G,B,A,B, G,B,A,B, | 
[V:1] e'bd'b d'bd'b d'bd'b d'bd'b | 
[V:2] ^G,B, ^G,,E, G,,E,G,,E, G,,E,G,,E, G,,E,G,,E, | 
[V:1] d'2^c'b a^g^fe d^cBA ^G^FED | 
[V:2] ^G,,E,G,,E, G,,E,G,,E, G,,E,G,,E, G,,E,G,,E, | 
[V:1] ^C^DED E^GAG A^B^cB c^ded | 
[V:2] [A,,2^C,2E,2][A,,2C,2E,2] z2 [A,,2C,2E,2] [A,,2C,2E,2][A,,2C,2E,2] z2 [A,,2C,2E,2] | 
[V:1] e^gag a^b^c'b c'^d'e'd' e'd'c'b | 
[V:2] [A,,2^C,2E,2][A,,2C,2E,2] z2 [A,,2C,2E,2] [A,,2C,2E,2][A,,2C,2E,2] z2 [A,,2C,2E,2] | 
[V:1] ^c'^bc'^d' e'd'c'b c'bc'd' e'd'c'b | 
[V:2] [^A,,2^C,2E,2^F,2][A,,2C,2E,2F,2] z2 [A,,2C,2E,2F,2] [A,,2C,2E,2F,2][A,,2C,2E,2F,2] z2 [A,,2C,2E,2F,2] | 
[V:1] ^c'^bc'^d' e'd'c'b c'bc'd' e'd'e'c' | 
[V:2] [^A,,2^C,2E,2^F,2][A,,2C,2E,2F,2] z2 [A,,2C,2E,2F,2] [A,,2C,2E,2F,2][A,,2C,2E,2F,2] z2 [A,,2C,2E,2F,2] | 
[V:1] .[B2b2].[B2b2].[^G2^g2].[E2e2] .[e2e'2].[e2e'2].[B2b2].[G2g2] | 
[V:2] B,,E,^G,B, B,,E,G,B, B,,E,G,B, B,,E,G,B, | 
[V:1] .[B2b2].[B2b2].[^G2^g2].[E2e2] .[e2e'2].[e2e'2].[B2b2].[G2g2] | 
[V:2] B,,E,^G,B, B,,E,G,B, .G,2.G,2.E,2.B,,2 | 
[V:1] z ^gbg bgbg bgbg bgbg | 
[V:2] .B,2.^G,2.E2.B,2[K:clef=treble] .^G2.E2.B2.G2 | 
[V:1] b^gbg bgbg bgbg bgbg | 
[V:2] .e2.B2.e2B2 .e2.B2.e2.B2 | 
[V:1] z aba c'aba c'aba c'aba | 
[V:2] .^d2.B2.d2.B2 .d2.B2.d2.B2 | 
[V:1] c'aba c'aba c'aba c'aba | 
[V:2] .^d2.B2.d2.B2 .d2.B2.d2.B2 | 
[V:1] ^c'aba c'aba c'aba c'aba | 
[V:2] ^d16- | 
[V:1] ^f'[ab]f'[ab] f'[ab]f'[ab] f'[ab]f'[ab] f'[ab]f'[ab] | 
[V:2] d16 | 
[V:1] [^g12b12e'12]e'd'c'b | 
[V:2] e8[^G8B8d8] & E16- | 
[V:1] c'ba^g abc'd' e'f'e'^d' e'=d'c'b | 
[V:2] [A8c8][^G8B8d8] & E8-E8 | 
[V:1] c'd'c'b a^gabc8 & z4z4c'4a2^f2 | 
[V:2] c4z4z8 & A4z4[A,8C8^F8A8] | 
[V:1] b4g2e2a4^f2^d2 & B8A8 | 
[V:2] [B,8E8G8][B,8^D8^F8][K:clef=bass] | 
[V:1] e12edcB | 
[V:2] E8[^G,8B,8D8] & E,16- | 
[V:1] cBA^G ABcd efe^d e=dcB | 
[V:2] [A,8C8][^G,8B,8D8] & E,16 | 
[V:1] z4cdcBz4c4 & A^GABC8A2^F2 | 
[V:2] C4z4z8 & A,4z4[A,,8C,8^F,8A,8] | 
[V:1] B4G2E2A4^F2^D2 & B,8A,8 | 
[V:2] [B,,8E,8G,8][B,,8^D,8^F,8] | 
[V:1] .E4e2d2c4A2F2 | 
[V:2] G,4E,4-E,2F,2G,2A,2 & .E,4G,,4A,,8 | 
[V:1] B4G2E2A4^F2^D2 | 
[V:2] [G,8B,8][^F,8A,8] & B,,16 | 
[V:1] .E4c2B2A4F2D2 | 
[V:2] [E,4G,4]C,4-C,2D,2E,2F,2 & C,4E,,4F,,8 | 
[V:1] G4E2C2F4D2B,2[K:clef=bass] | 
[V:2] [E,8G,8][D,8F,8] & G,,16 | 
[V:1] [E,2C2][C,2E,2][C,2E,2][C,2E,2] [C,2E,2][C,2E,2][C,2E,2][C,2E,2] | 
[V:2] [C,,2C,2][C,,2G,,2][C,,2G,,2][C,,2G,,2] [C,,2G,,2][C,,2G,,2][C,,2G,,2][C,,2G,,2] | 
[V:1] [C,2E,2][C,2E,2][C,2E,2][C,2E,2] [C,2E,2][C,2E,2][D,2^F,2][D,2F,2][K:clef=treble] :|]  
[V:2] [C,,2G,,2][C,,2G,,2][C,,2G,,2][C,,2G,,2] [C,,2G,,2][C,,2G,,2][C,,2A,,2][C,,2A,,2] :|]  
[V:1] C4f2e2d4_B2G2 | 
[V:2] E,4F,4-F,2G,2A,2_B,2 & C,4A,,4_B,,8 | 
[V:1] c4A2F2_B4G2E2 | 
[V:2] [A,8C8][G,8_B,8] & C,16 | 
[V:1] .F4F2E2D4_B,2G,2[K:clef=bass] | 
[V:2] [F,4A,4]F,,4-F,,2G,,2A,,2_B,,2 & D,4A,,,4_B,,,8 | 
[V:1] C4A,2F,2_B,4G,2E,2 | 
[V:2] [A,,8C,8][G,,8_B,,8] & C,,16 | 
[V:1] [A,,2F,2][F,,2A,,2][F,,2A,,2][F,,2A,,2] [F,,2A,,2][F,,2A,,2][F,,2A,,2][F,,2A,,2] | 
[V:2] [F,,,2F,,2][F,,,2C,,2][F,,,2C,,2][F,,,2C,,2] [F,,,2C,,2][F,,,2C,,2][F,,,2C,,2][F,,,2C,,2] | 
[V:1] [F,,2A,,2][F,,2A,,2][F,,2A,,2][F,,2A,,2] [F,,2A,,2][F,,2A,,2][G,,2B,,2][G,,2B,,2] | 
[V:2] [F,,,2C,,2][F,,,2C,,2][F,,,2C,,2][F,,,2C,,2] [F,,,2C,,2][F,,,2C,,2][F,,,2D,,2][F,,,2D,,2] | 
[V:1] C,6E,D, .C,2 z2z4[K:clef=treble] | 
[V:2] [E,,2G,,2][E,,2G,,2][E,,2G,,2][E,,2G,,2] [E,,2G,,2][E,,2G,,2][E,,2G,,2][E,,2G,,2] | 
[V:1] g4-gf_edz4.c4[K:clef=bass] | 
[V:2] [_E,,2G,,2][E,,2G,,2][E,,2G,,2][E,,2G,,2] [E,,2G,,2][E,,2G,,2][E,,2G,,2][E,,2G,,2] | 
[V:1] ^F,6A,G, z2z4.F,2[K:clef=treble] | 
[V:2] [D,,2A,,2][D,,2A,,2][D,,2A,,2][D,,2A,,2] [D,,2A,,2][D,,2A,,2][D,,2A,,2][D,,2A,,2] | 
[V:1] _e'4-e'd'c'_bz4.a4 | 
[V:2] [^F,,2D,2][F,,2D,2][F,,2D,2][F,,2D,2] [F,,2D,2][F,,2D,2][F,,2D,2][F,,2D,2] | 
[V:1] _B,2DC.B,4c'_bag.^f4 | 
[V:2] G,,D,G,,D, G,,D,G,,D, A,,D,A,,D, A,,D,A,,D, | 
[V:1] G2_BA.G4_e'd'c'_b.a4 | 
[V:2] _B,,D,B,,D, B,,D,B,,D, ^F,,D,F,,D, F,,D,F,,D, | 
[V:1] _B,2DC.B,4c'_bag.^f4 | 
[V:2] G,,D,G,,D, G,,D,G,,D, A,,D,A,,D, A,,D,A,,D, | 
[V:1] dc_BA.G4_agf_e.d4 | 
[V:2] _B,,D,B,,D, B,,G,B,,G, =B,,G,B,,G, B,,G,B,,G, | 
[V:1] _E2GF.E4f_edc.B4 | 
[V:2] C,G,C,G, C,G,C,G, D,G,D,G, D,G,D,G, | 
[V:1] C2_ED.C4_agf_e.d4 | 
[V:2] _E,G,E,G, E,G,E,G, B,,G,B,,G, B,,G,B,,G, | 
[V:1] _E2GF.E4f_edc.B4 | 
[V:2] C,G,C,G, C,G,C,G, D,G,D,G, D,G,D,G, | 
[V:1] gf_ed.c4_d'c'_b_a.g4 | 
[V:2] _E,G,E,G, E,CE,C =E,CE,C E,CE,C | 
[V:1] _a2c'_b.a4_d'2f'_e'.d'4 | 
[V:2] F,_A,CF F,A,CF F,_B,_DF F,B,DF | 
[V:1] _G2_B_A.G4_c8 | 
[V:2] F,_G,_B,_D F,G,B,D _E,G,_C_E E,G,CE | 
[V:1] f2ag.f4_b2_d'c'.b4 | 
[V:2] _E,F,A,C E,F,A,C _D,F,_B,_D D,F,B,D | 
[V:1] _E2GF.E4_A8 | 
[V:2] _D,_E,G,_B, D,E,G,B, C,E,_A,C C,E,A,C | 
[V:1] _d2f_e.d4_g2_b_a.g4 | 
[V:2] C,_D,F,_A, C,D,F,A, _B,,D,_G,_B, B,,D,G,B, | 
[V:1] C2ED.C4c8 | 
[V:2] _B,,C,E,G, B,,C,E,G, _A,,C,F,_A, A,,C,F,A, | 
[V:1] c2ed.c4c'8 | 
[V:2] G,,_B,,E,G, G,,B,,E,G, F,,_A,,C,F, (3F,,2A,,2F,2 | 
[V:1] [M:4/4]c'2e'd' .c'2.c'2 .c'2c'2f'2b2 | 
[V:2] [M:4/4](3E,,2G,,2E,2 (3_E,,2G,,2_E,2 (3D,,2F,,2D,2 (3_D,,2F,,2_D,2 | 
[V:1] c'4G8G4 | 
[V:2] (3[C,,2C,2]G,,2E,,2 (3G,,2C,2E,2 (3D,2B,,2G,,2 (3B,,2D,2F,2 | 
[V:1] (3c2G2E2 (3G2c2e2 (3d2B2_A2 (3B2d2f2 | 
[V:2] (3E,2G,2C2 (3G,2E,2C,2 (3F,2_A,2C2 (3A,2F,2C,2 | 
[V:1] (3e2_d2_B2 (3d2e2g2 (3_b2e2_d'2 (3e2d2b2 | 
[V:2] (3G,2_B,2-[B,2C2-]C4-C8 & G,4-(3[G,2B,2]-[G,2B,2]-[C,2G,2B,2]-[C,8-G,8-B,8] | 
[V:1] (3_d2_B2e2 (3B2E2d2 (3B2E2c2 (3B2E2c2 | 
[V:2] [C,16G,16B,16C16] | 
[V:1] [F4A4c4]c8c4 | 
[V:2] (3[F,,2F,2]C,2A,,2 (3C,2F,2A,2 (3G,2E,2C,2 (3E,2G,2_B,2 | 
[V:1] (3f2c2A2 (3e2f2a2 (3g2e2_d2 (3e2g2_b2 | 
[V:2] (3A,2C2F2 (3C2A,2F,2 (3_B,2_D2F2 (3D2B,2F,2 | 
[V:1] (3a2_g2_e2 (3g2a2c'2 (3a2g2_e'2 (3g2e2c'2 | 
[V:2] (3C2_E2-[E2F2-]F4-F8 & C4-(3[C2E2-][C2E2]-[F,2C2E2][F,8C8E8] | 
[V:1] (3_e2c2a2 (3e2A2_g2 (3e2A2f2 (3e2A2f2 | 
[V:2] [F,16C16_E16F16] | 
[V:1] [_B4d4f4]F8F4 | 
[V:2] (3[_B,,,2_B,,2]F,,2D,,2 (3G,,2B,,2D,2 (3C,2A,,2F,,2 (3A,,2C,2_E,2 | 
[V:1] (3_B2F2D2 (3F2B2d2 (3c2A2_G2 (3A2c2_e2 | 
[V:2] (3D,2F,2_B,2 (3F,2D,2_B,,2 (3_E,2_G,2B,2 (3G,2E,2B,,2 | 
[V:1] (3d2_c2_A2 (3c2d2f2 (3_a2e2_c'2 (3d2c2a2 | 
[V:2] (3F,2_A,2-[A,2_B,2-]B,4-B,8 & F,4-(3[F,2A,2-][F,2A,2-][_B,,2F,2A,2][B,,8F,8A,8] | 
[V:1] (3_c2_A2f2 (3A2F2d2 (3A2D2c2 (3A2D2_B2 | 
[V:2] [B,,16F,16_A,16_B,16] | 
[V:1] (3_g2_e2_B2 (3e2g2_b2 (3g2e2_e'2 (3e2B2b2 | 
[V:2] (3_E,2_G,2-[G,2_B,2-]B,4-[G,8B,8]- & _E,4-(3[E,2G,2][E,2G,2]-[_B,,2E,2G,2-][B,,8E,8]- | 
[V:1] (3_B2_G2_g2 (3G2_E2_e2 (3G2E2e2 (3G2E2e2 | 
[V:2] [B,,16E,16G,16B,16] | 
[V:1] (3^f2e2^c2 (3e2f2^c'2 (3f2e2e'2 (3e2c2c'2 | 
[V:2] (3^C,2^F,2-[F,2^A,2-]A,4-[F,8A,8] & ^C,4-(3[C,2F,2]-[C,2F,2]-[^A,,2C,2F,2-][A,,8C,8] | 
[V:1] (3^c2^F2^f2 (3F2E2e2 (3F2E2e2 (3F2E2e2 | 
[V:2] [^A,,16^C,16^F,16^A,16] | 
[V:1] (3^f2d2B2 (3d2f2b2 (3f2d2d'2 (3d2B2b2 | 
[V:2] (3D,2^F,2-[F,2B,2-]B,4-B,8- & D,4-(3[D,2F,2]-[D,2F,2]-[B,,2-D,2-F,2][B,,8D,8F,8]- | 
[V:1] (3B2^F2^f2 (3F2D2d2 (3F2D2d2 (3F2D2d2 | 
[V:2] [B,,16D,16F,16B,16] | 
[V:1] (3g2d2B2 (3d2g2b2 (3g2d2d'2 (3d2B2b2 | 
[V:2] (3D,2G,2-[G,2B,2-]B,4G,8- & D,4-(3[D,2G,2]-[D,2G,2]-[B,,2D,2G,2-][B,,8D,8] | 
[V:1] (3B2G2g2 (3G2F2f2 (3G2D2d2 (3G2D2d2 | 
[V:2] [B,,16D,16G,16B,16] | 
[V:1] (3c'2g2_e2 (3g2c'2_e'2 (3g2e2e'2 (3e2c2c'2 | 
[V:2] (3_E,2G,2-[G,2C2-]C4-C8- & _E,4-(3[E,2G,2]-[E,2G,2]-[C,2-E,2G,2-][C,8E,8G,8]- | 
[V:1] (3c2G2g2 (3G2_E2_e2 (3G2E2e2 (3G2E2e2 | 
[V:2] [C,16E,16G,16C16] | 
[V:1] (3f2_d2_A2 (3d2f2_a2 (3f2d2A2 (3f2d2A2 | 
[V:2] (3_A,2_D2-[D2F2-]F4-[D8F8] & _A,4-(3[A,2D2][A,2D2]-[F,2A,2D2-][F,8A,8] | 
[V:1] [M:4/4](3_e2c2A2 (3c2e2a2 (3e2c2A2 (3e2c2A2 | 
[V:2] [M:4/4](3C2_E2-[E2^F2-]F4-F8 & C4-(3[C2E2-][C2E2]-[^F,2C2E2]-[F,8C8E8] | 
[V:1] z4(3B2d2g2 (3d2B2G2 (3f2B2G2 | 
[V:2] (3B,2D2-[D2G2-]G4-[B,4D4G4]D4 & B,4(3[B,2D2-][B,2D2-][G,2B,2D2]G,8- | 
[V:1] (3f2d2G2 (3_e2d2G2 (3e2c2G2 (3d2c2A2 | 
[V:2] B,4G,4C4^F4 & G,4G,12 | 
[V:1] z4(3B,2D2G2 (3D2B,2G,2 (3F2B,2G,2 | 
[V:2] (3B,,2.D,2-[D,2G,2-]G,4-[B,,4D,4G,4]D,4 & B,,4(3[B,,2D,2]-[B,,2D,2]-[G,,2B,,2-D,2-]G,,8- | 
[V:1] (3F2D2G,2 (3_E2D2G,2 (3E2C2G,2 (3D2C2A,2 | 
[V:2] B,,4G,,4-C,4^F,4 & G,,4G,,4G,,8- | 
[V:1] (3D2B,2G,2[K:clef=bass] (3C2G,2_E,2 (3B,2G,2D,2 (3A,2E,2C,2 | 
[V:2] G,2 z2C,4G,,4C,,4 & G,,2 z2z12 | 
[V:1] (3G,2D,2B,,2 (3^F,2_E,2A,,2 (3G,2D,2B,,2 (3F,2E,2A,,2 | 
[V:2] G,,,4C,,4G,,,4C,,4 | 
[V:1] [B,,16D,16G,16] | 
[V:2] G,,,C,,B,,,A,,, G,,,C,,B,,,A,,, G,,,C,,B,,,A,,, G,,,C,,B,,,A,,, | 
[V:1] [B,,D,G,]D,E,^F, G,D,E,F, G,D,E,F, G,D,E,F, | 
[V:2] G,,,16- | 
[V:1] G,16- | 
[V:2] G,,,C,,B,,,A,,, G,,,C,,B,,,A,,, G,,,C,,B,,,A,,, G,,,C,,B,,,A,,, | 
[V:1] G,^F,G,A, B,F,G,A, B,F,G,A, B,F,G,A, | 
[V:2] G,,,16- | 
[V:1] B,2 z2 z2 B,C .D2 z2 z2[K:clef=treble] (3DE^F | 
[V:2] G,,,C,,B,,,A,,, G,,,C,,B,,,A,,, G,,,C,,B,,,A,,, G,,,C,,B,,,A,,, | 
[V:1] .G2 z2 z2 GA .B2Bc .d2(3de^f | 
[V:2] G,,,C,,B,,,A,,, G,,,C,,B,,,A,,, G,,,C,,B,,,A,,, G,,,C,,B,,,A,,, | 
[V:1] .g2 z2 z2 (3DE^F z2 .G2 z2 GA | 
[V:2] G,,,C,,B,,,A,,, G,,,C,,B,,,A,,, G,,,C,,B,,,A,,, G,,,C,,B,,,A,,, | 
[V:1] .B2 z2 z2 Bc .d2(3de^f .g2ga | 
[V:2] G,,,C,,B,,,A,,, G,,,C,,B,,,A,,, G,,,C,,B,,,A,,, G,,,C,,B,,,A,,, | 
[V:1] .b4z2 (3de^f.g4z2 ga | 
[V:2] G,,,C,,B,,,A,,, G,,,C,,B,,,A,,, G,,,C,,B,,,A,,, G,,,C,,B,,,A,,, | 
[V:1] .b4z2 ga .b2bc' .d'2d'e' | 
[V:2] G,,,C,,B,,,A,,, G,,,C,,B,,,A,,, G,,,C,,B,,,A,,, G,,,C,,B,,,A,,, | 
[V:1] .f'4z2 d'e'.f'4z2 d'e' | 
[V:2] G,,,C,,B,,,A,,, G,,,C,,B,,,A,,, G,,,^C,,B,,,A,,, G,,,C,,B,,,A,,, | 
[V:1] .f'2d'e' .f'2d'e' .f'2d'e' .f'2d'e' | 
[V:2] G,,,D,,B,,,A,,, G,,,D,,B,,,A,,, G,,,D,,B,,,A,,, G,,,D,,B,,,A,,, | 
[V:1] f'e'd'c' bc'd'e' f'e'd'c' bc'd'e' | 
[V:2] G,,,A,,,B,,,C,, D,,C,,B,,,A,,, G,,,A,,,B,,,C,, D,,C,,B,,,A,,, | 
[V:1] f'2e'd' c'bag fedc BAGF | 
[V:2] G,,,2A,,,B,,, C,,D,,E,,F,, G,,A,,B,,C, D,E,F,G, | 
[V:1] E2[K:clef=bass] [C,2E,2][C,2E,2][C,2E,2] [C,2E,2][C,2E,2][C,2E,2][C,2E,2] | 
[V:2] C,2 [C,,2G,,2][C,,2G,,2][C,,2G,,2] [C,,2G,,2][C,,2G,,2][C,,2G,,2][C,,2G,,2] | 
[V:1] [C,2E,2][C,2E,2][C,2E,2][C,2E,2] [C,2E,2][C,2E,2][D,2^F,2][D,2F,2] | 
[V:2] [C,,2G,,2][C,,2G,,2][C,,2G,,2][C,,2G,,2] [C,,2G,,2][C,,2G,,2][C,,2A,,2][C,,2A,,2] | 
[V:1] [D,6G,6]B,A, z2z4.G,2[K:clef=treble] | 
[V:2] [B,,,2G,,2][B,,,2G,,2][B,,,2G,,2][B,,,2G,,2] [B,,,2G,,2][B,,,2G,,2][B,,,2G,,2][B,,,2G,,2] | 
[V:1] d'4-d'c'ba.g4z4[K:clef=bass] | 
[V:2] [B,,,2G,,2][B,,,2G,,2][B,,,2G,,2][B,,,2G,,2] [B,,,2G,,2][B,,,2G,,2][B,,,2G,,2][B,,,2G,,2] | 
[V:1] [_B,,2D,2][B,,2D,2][B,,2D,2][B,,2D,2] [B,,2D,2][B,,2D,2][B,,2D,2][B,,2D,2] | 
[V:2] [_B,,,2F,,2][B,,,2F,,2][B,,,2F,,2][B,,,2F,,2] [B,,,2F,,2][B,,,2F,,2][B,,,2F,,2][B,,,2F,,2] | 
[V:1] [_B,,2D,2][B,,2D,2][B,,2D,2][B,,2D,2] [B,,2D,2][B,,2D,2][C,2E,2][C,2E,2] | 
[V:2] [_B,,,2F,,2][B,,,2F,,2][B,,,2F,,2][B,,,2F,,2] [B,,,2F,,2][B,,,2F,,2][B,,,2G,,2][B,,,2G,,2] | 
[V:1] [C,6F,6]A,G, z2z4.F,2[K:clef=treble] | 
[V:2] [A,,,2F,,2][A,,,2F,,2][A,,,2F,,2][A,,,2F,,2] [A,,,2F,,2][A,,,2F,,2][A,,,2F,,2][A,,,2F,,2] | 
[V:1] c'4-c'_b_ag.f4z4 | 
[V:2] [_A,,,2F,,2][A,,,2F,,2][A,,,2F,,2][A,,,2F,,2] [A,,,2F,,2][A,,,2F,,2][A,,,2F,,2][A,,,2F,,2] | 
[V:1] f'12f'_e'd'c' | 
[V:2] [G,,,2F,,2][G,,,2F,,2][G,,,2F,,2][G,,,2F,,2] [G,,,2F,,2][G,,,2F,,2][_A,,,2F,,2][A,,,2F,,2] | 
[V:1] bc'd'_e' f'e'd'c' bc'd'e' f'e'd'c' | 
[V:2] [G,,,2F,,2][G,,,2F,,2][_A,,,2F,,2][A,,,2F,,2] [G,,,2F,,2][G,,,2F,,2][A,,,2F,,2][A,,,2F,,2] | 
[V:1] bc'd'_e' f'e'd'c' b_agf _edcB | 
[V:2] [G,,,4F,,4][G,,8G,8]-[G,,2G,2]A,B, | 
[V:1] .c2 z2 .G2 z2 ._E2 z2 .C2 z2 | 
[V:2] .C2 z2 .[G,,2G,2] z2 .[_E,,2_E,2] z2 .[C,,2C,2] z2 | 
[V:1] !fermata!_A,16 | 
[V:2] !fermata![_A,,,16_A,,16] | 
[V:1] ._d2 z2 ._A2 z2 .F2 z2 ._D2 z2 | 
[V:2] ._D2 z2 ._A,2 z2 .F,2 z2 ._D,2 z2 | 
[V:1] !fermata!_B,16 | 
[V:2] !fermata![_B,,,16_B,,16] | 
[V:1] z G_B_e z GBe z GBe z GBe | 
[V:2] _E2 z2 _B,2 z2 G,2 z2 _E,2 z2 | 
[V:1] z F_A_e z FBd z _E^Fd z E=Ac | 
[V:2] F,2 z2 _A,2 z2 =A,2 z2 ^F,2 z2 | 
[V:1] z DGc z DGc z DGB z DFB | 
[V:2] G,2 z2 ^F,2 z2 G,2 z2 G,,2 z2 | 
[V:1] [E2c2] EC ECEC ECEC ECEC | 
[V:2] [C,,2C,2] C,G, C,G,C,G, C,G,C,G, C,G,C,G, | 
[V:1] ECEC ECEC ECEC ^FDFD | 
[V:2] C,G,C,G, C,G,C,G, C,G,C,G, C,A,C,A, | 
[V:1] G6BA .G2 z2z4 | 
[V:2] .[B,,D,]G,[B,,D,]G, [B,,D,]G,[B,,D,]G, [B,,D,]G,[B,,D,]G, [B,,D,]G,[B,,D,]G, | 
[V:1] d'4-d'c'ba.g4z4 | 
[V:2] [B,,D,]G,[B,,D,]G, [B,,D,]G,[B,,D,]G, [B,,D,]G,[B,,D,]G, [B,,D,]G,[B,,D,]G, | 
[V:1] FDFD FDFD FDFD FDFD | 
[V:2] [D,,2D,2] D,A, D,A,D,A, D,A,D,A, D,A,D,A, | 
[V:1] FDFD FDFD FDFD ^GEGE | 
[V:2] D,A,D,A, D,A,D,A, D,A,D,A, D,B,D,B, | 
[V:1] A6cB .A2 z2z4 | 
[V:2] [C,E,]A,[C,E,]A, [C,E,]A,[C,E,]A, [C,E,]A,[C,E,]A, [C,E,]A,[C,E,]A, | 
[V:1] e'4-e'd'c'b.a4z4 | 
[V:2] [C,E,]A,[C,E,]A, [C,E,]A,[C,E,]A, [C,E,]A,[C,E,]A, [C,E,]A,[C,E,]A, | 
[V:1] c'4-c'ba^g.a4z4 | 
[V:2] [F,A,]C[F,A,]C [F,A,]C[F,A,]C [F,A,]D[F,A,]D [F,A,]D[F,A,]D | 
[V:1] c'4-c'ba^g agab c'^c'd'^d' | 
[V:2] [F,A,]^D[F,A,]D [F,A,]D[F,A,]D [F,A,]C[F,A,]C F,A,F,A, | 
[V:1] e'4-e'd'c'b c'ba^g ac'ba | 
[V:2] E,^G,B,E E,G,B,E E,A,CE E,A,CE | 
[V:1] ^g^fe^d ef=g^g agab c'^c'd'^d' | 
[V:2] E,B,DE E,B,DE E,A,CE E,A,CE | 
[V:1] e'^d'e'd' e'=d'c'b c'ba^g ac'ba | 
[V:2] E,^G,B,E E,G,B,E E,A,CE E,A,CE | 
[V:1] ^g^fe^d ef=g^g agab c'^c'd'^d' | 
[V:2] E,B,DE E,B,DE E,A,CE E,A,CE | 
[V:1] e'b^ge ^deac' e'bge deac' | 
[V:2] E,^G,B,E ^DECA, E,G,B,E DECA, | 
[V:1] e'b^ge e'c'ae e'bge e'c'ae | 
[V:2] E,^G,B,E E,A,CE E,G,B,E E,A,CE | 
[V:1] e'b^ge bgeB geB^G eBGE | 
[V:2] [E,4^G,4B,4E4]z4z8 | 
[V:1] B^GEB, GEB,^G, EB,G,E,z4 | 
[V:2] z8z4E,,^G,,B,,E, | 
[V:1] z8!wedge!e2!wedge!E2!wedge!^f2!wedge!^F2 | 
[V:2] !wedge!E,,2!wedge!E,2!wedge!^F,,2!wedge!^F,2 !wedge!^G,,2!wedge!^G,2z4 | 
[V:1] !wedge!^g2!wedge!^G2z4!wedge!g2!wedge!G2!wedge!a2A2 | 
[V:2] !wedge!^G,,2!wedge!^G,2!wedge!A,,2!wedge!A,2 !wedge!B,,2!wedge!B,2z4 | 
[V:1] !wedge!b2!wedge!B2!wedge!^c'2!wedge!^c2 !wedge!d'2!wedge!d2!wedge!d'2!wedge!e2 | 
[V:2] z8!wedge!B,,2!wedge!B,2!wedge!^C,2!wedge!^C2 | 
[V:1] !wedge!d'2!wedge!^f2!wedge!d'2!wedge!^g2 !wedge!d'2!wedge!a2d'2!wedge!b2 | 
[V:2] !wedge!D,2!wedge!D2!wedge!E,2!wedge!E2 !wedge!^F,2!wedge!^F2!wedge!^G,2!wedge!^G2 | 
[V:1] [^c8e8a8^c'8][B4e4^g4b4][A4c4^f4a4] | 
[V:2] [A,8^C8E8A8][E,4^G,4B,4E4][^F,4A,4C4^F4] | 
[V:1] [^G8B8^e8^g8][^F8A8d8^f8] | 
[V:2] [^C,8^E,8^G,8^C8][D,8^F,8A,8D8] | 
[V:1] [^G8d8e8^g8][A4e4a4][B4^f4a4b4] | 
[V:2] [B,,8E,8^G,8B,8][^C,4E,4A,4^C4][D,4^F,4B,4D4] | 
[V:1] [a8^c'8][^g8b8] & e8-e4d4 | 
[V:2] [A,8^C8E8][^G,8B,8E8] & E,16 | 
[V:1] [E8A8c8][E4G4B4][C4F4A4] | 
[V:2] [A,8C8][E,4G,4B,4][F,4A,4] | 
[V:1] [C8E8G8][A,8D8F8] | 
[V:2] [C,8E,8G,8][D,8F,8] | 
[V:1] G8A4B4 & [C4E4][D12F12] | 
[V:2] [C,4E,4][D,12F,12] & G,,16 | 
[V:1] (3.[E2G2c2].d2.e2 (3.f2.g2.a2 (3._b2.=b2.c'2 (3.^c'2.d'2.^d'2 | 
[V:2] E,4z4z8[K:clef=treble] & C,4z4z8 | 
[V:1] (3e'2^d'2e'2 (3f'2d'2e'2 (3b2e'2=d'2 (3a2d'2c'2 & c'8b4a4 | 
[V:2] [c8e8][^G4B4d4f4][A4c4e4] | 
[V:1] (3^g2^a2b2 (3c'2a2b2 (3f2g2=a2 (3b2g2a2 & ^g8f8 | 
[V:2] [E8^G8B8d8][F8A8c8] | 
[V:1] (3f2^a2b2 (3c'2a2b2 (3g2d'2c'2 (3=a2e'2d'2 & f8g4=a4 | 
[V:2] [D8F8G8B8][E4G4c4][F4A4c4d4] | 
[V:1] (3e'2^d'2e'2 (3g'2f'2e'2 (3=d'2c'2b2 (3a2g2f2 & c'8(3b2a2g2 (3f2e2d2 | 
[V:2] [G8-c8e8][G4B4d4][K:clef=bass](3G,2A,2B,2 | 
[V:1] (3e2^d2e2 (3f2d2e2 (3F2e2=d2 (3E2d2c2 & G8F4E4 | 
[V:2] [C8E8][^G,4B,4D4][A,4C4] | 
[V:1] (3D2^A2B2 (3c2A2B2 (3C2^G2=A2 (3B2G2A2 & D8C8 | 
[V:2] [E,8^G,8B,8][F,8A,8] | 
[V:1] (3C2E2G2 (3D2F2G2 (3D2F2A2 (3D2F2B2 | 
[V:2] [C,4E,4][D,12F,12] & G,,16 | 
[V:1] (3[E2c2]G,2E,2 (3G,2C2E2 (3D2B,2G,2 (3B,2D2F2 | 
[V:2] [C,,4C,4]G,,8G,,4- | 
[V:1] (3E2C2G,2 (3C2E2G2 (3F2D2B,2 (3B2F2D2 | 
[V:2] G,,4G,,8G,,4 | 
[V:1] [E4c4]G8G4- | 
[V:2] (3C,2G,,2E,,2 (3G,,2C,2E,2 (3D,2B,,2G,,2 (3B,,2D,2F,2 | 
[V:1] G4G8G4 | 
[V:2] (3E,2C,2G,,2 (3C,2E,2G,2 (3F,2D,2B,,2 (3B,2F,2D,2 | 
[V:1] (3c2G2E2 (3G2c2e2 (3d2B2G2 (3B2d2f2 | 
[V:2] (3E,2G,2C2 (3G,2E,2C,2 (3B,,2D,2F,2 (3D,2B,,2G,,2 | 
[V:1] (3e2c2G2 (3c2e2g2 (3f2d2B2 (3b2g2d2 | 
[V:2] (3C,2E,2G,2 (3E,2C,2G,,2 (3D,2F,2G,2 (3F,2G,2D2 | 
[V:1] (3c'2g2e2 (3g2e2c2 (3f2d2B2 (3b2g2d2 | 
[V:2] (3E,2G,2C2 (3C,2E,2G,2 (3D,2F,2G,2 (3F,2G,2D2 | 
[V:1] (3c'2g2e2 (3g2e2c2 (3f2d2B2 (3b2g2d2 | 
[V:2] (3E,2G,2C2 (3C,2E,2G,2 (3D,2F,2G,2 (3F,2G,2D2 | 
[V:1] c'gec fdbg c'gec fdbg | 
[V:2] E,G,C,G, D,G,F,G, E,G,C,G, D,G,F,G, | 
[V:1] c'gbg c'gbg c'gbg c'gbg | 
[V:2] E,G,F,G, E,G,F,G, E,G,F,G, E,G,F,G, | 
[V:1] c'g_bg bgbg bgbg bgbg | 
[V:2] E,G, E,,C, E,,C,E,,C, E,,C,E,,C, E,,C,E,,C, | 
[V:1] _b2ag fedc _BAGF EDC_B, | 
[V:2] E,,C,E,,C, E,,C,E,,C, E,,C,E,,C, E,,C,E,,C, | 
[V:1] A,B,CB, CEFE F^GAG ABcB | 
[V:2] [F,,2A,,2C,2][F,,2A,,2C,2] z2 [F,,2A,,2C,2] [F,,2A,,2C,2][F,,2A,,2C,2] z2 [F,,2A,,2C,2] | 
[V:1] cefe f^gag abc'b c'bag | 
[V:2] [F,,2A,,2C,2][F,,2A,,2C,2] z2 [F,,2A,,2C,2] [F,,2A,,2C,2][F,,2A,,2C,2] z2 [F,,2A,,2C,2] | 
[V:1] a^gab c'bag agab c'bag | 
[V:2] [^F,,2A,,2C,2D,2][F,,2A,,2C,2D,2] z2 [F,,2A,,2C,2D,2] [F,,2A,,2C,2D,2][F,,2A,,2C,2D,2] z2 [F,,2A,,2C,2D,2] | 
[V:1] a^gab c'bag agab c'bc'a | 
[V:2] [^F,,2A,,2C,2D,2][F,,2A,,2C,2D,2] z2 [F,,2A,,2C,2D,2] [F,,2A,,2C,2D,2][F,,2A,,2C,2D,2] z2 [F,,2A,,2C,2D,2] | 
[V:1] .[G2g2].[G2g2].[E2e2].[C2c2] .[c2c'2].[c2c'2].[G2g2].[E2e2] | 
[V:2] G,,C,E,G, G,,C,E,G, G,,C,E,G, G,,C,E,G, | 
[V:1] .[G2g2].[G2g2].[E2e2].[C2c2] .[c2c'2].[c2c'2].[G2g2].[E2e2] | 
[V:2] G,,C,E,G, G,,C,E,G, .E,2.E,2.C,2.G,,2 | 
[V:1] z c'e'c' g'e'g'e' g'e'g'e' g'e'g'e' | 
[V:2] .G,2.E,2.C2.G,2[K:clef=treble] .E2.C2.G2.E2 | 
[V:1] g'e'g'e' g'e'g'e' g'e'g'e' g'e'g'e' | 
[V:2] .c2.G2.e2.c2 .g2.e2.c'2.g2 | 
[V:1] z f'g'f' _a'f'g'f' a'f'g'f' a'f'g'f' | 
[V:2] .b2.g2.b2.g2 .b2.g2.b2.g2 | 
[V:1] _a'f'g'f' a'f'g'f' a'f'g'f' a'f'g'f' | 
[V:2] .b2.g2.b2.g2 .b2.g2.b2.g2 | 
[V:1] a'f'g'f' a'f'g'f' a'f'g'f' a'f'g'f' | 
[V:2] b16- | 
[V:1] a'2[f'2g'2][f'2g'2][f'2g'2] [f'2g'2][f'2g'2][f'2g'2][f'2g'2] | 
[V:2] b16 | 
[V:1] c'12c'_b_ag | 
[V:2] c8[E8G8_B8] & C16- | 
[V:1] _agfe fga_b c'_d'c'=b c'_bag | 
[V:2] [F8_A8][E8G8_B8] & C16 | 
[V:1] _a_bag fefg_A8 & z8a4f2_d2 | 
[V:2] [F4_A4]z4[K:clef=bass][F,8_A,8_D8F8] | 
[V:1] g4_e2c2f4d2B2 & G8F8 | 
[V:2] [G,8C8_E8][G,8B,8D8] | 
[V:1] c12c_BAG | 
[V:2] C8[E,8G,8_B,8] & C,16- | 
[V:1] AGFE FGA_B cdc=B c_BAG | 
[V:2] [F,8A,8][E,8G,8_B,8] & C,16 | 
[V:1] A_BAG FEFGA4F2D2 & z8A,8 | 
[V:2] A,4z4z8 & F,4z4[F,,8A,,8D,8] | 
[V:1] G4E2C2F4D2B,2 & G,16 | 
[V:2] [C,8E,8][D,8F,8] & G,,16 | 
[V:1] [G,4C4]c2B2A4F2D2 | 
[V:2] E,4C,4-C,2D,2E,2F,2 & C,4E,,4F,,8 | 
[V:1] G4E2C2F4D2B,2 | 
[V:2] [E,8G,8][D,8F,8] & G,,16 | 
[V:1] C4f2e2d4_B2G2 | 
[V:2] E,4F,4-F,2G,2A,2_B,2 & C,4A,,4_B,,8 | 
[V:1] c4A2F2_B4G2E2 | 
[V:2] [A,8C8][G,8_B,8] & C,16 | 
[V:1] F4f2_e2_d4_B2G2 | 
[V:2] _A,4F,4-F,2G,2A,2_B,2 & F,4_A,,4_B,,8 | 
[V:1] c4_A2F2_B4G2E2 | 
[V:2] [_A,8C8][G,8_B,8] & C,16 | 
[V:1] F2[K:clef=bass] [_D,2F,2][D,2F,2][D,2F,2] [D,2F,2][D,2F,2][D,2F,2][D,2F,2] | 
[V:2] [_D,2F,2_A,2] [_D,,2_A,,2][D,,2A,,2][D,,2A,,2] [D,,2A,,2][D,,2A,,2][D,,2A,,2][D,,2A,,2] | 
[V:1] [_D,2F,2][D,2F,2][D,2F,2][D,2F,2] [D,2F,2][D,2F,2][_E,2G,2][E,2G,2] | 
[V:2] [_D,,2_A,,2][D,,2A,,2][D,,2A,,2][D,,2A,,2] [D,,2A,,2][D,,2A,,2][D,,2_B,,2][D,,2B,,2] | 
[V:1] [_E,6_A,6]C_B, .A,2 z2z4[K:clef=treble] | 
[V:2] [C,,2_E,,2_A,,2][C,,2E,,2A,,2][C,,2E,,2A,,2][C,,2E,,2A,,2] [C,,2E,,2A,,2][C,,2E,,2A,,2][C,,2E,,2A,,2][C,,2E,,2A,,2] | 
[V:1] _e'4-e'_d'c'_b.a4z4[K:clef=bass] | 
[V:2] [C,,2_E,,2F,,2A,,2][C,,2E,,2F,,2A,,2][C,,2E,,2F,,2A,,2][C,,2E,,2F,,2A,,2] [C,,2E,,2F,,2A,,2][C,,2E,,2F,,2A,,2][C,,2E,,2F,,2A,,2][C,,2E,,2F,,2A,,2] | 
[V:1] _B,6_DC .B,2 z2z4[K:clef=treble] | 
[V:2] [_D,,2F,,2_B,,2][D,,2F,,2B,,2][D,,2F,,2B,,2][D,,2F,,2B,,2] [D,,2F,,2B,,2][D,,2F,,2B,,2][D,,2F,,2B,,2][D,,2F,,2B,,2] | 
[V:1] f'4-f'_e'd'c'.b4z4 | 
[V:2] [D,,2F,,2B,,2][D,,2F,,2B,,2][D,,2F,,2B,,2][D,,2F,,2B,,2] [D,,2F,,2B,,2][D,,2F,,2B,,2][D,,2F,,2B,,2][D,,2F,,2B,,2] | 
[V:1] C2_ED z2 .C2 _agf_e.d4 | 
[V:2] [_E,,2G,,2B,,2][E,,2G,,2B,,2][E,,2G,,2C,2][E,,2G,,2C,2] [F,,2_A,,2C,2][F,,2A,,2C,2][F,,2A,,2D,2][F,,2A,,2D,2] | 
[V:1] E2GF .E2 z2 c'_b_ag.f4 | 
[V:2] [G,,2_B,,2D,2][G,,2B,,2D,2][G,,2B,,2E,2][G,,2B,,2E,2] [_A,,2C,2E,2][A,,2C,2E,2][A,,2C,2F,2][A,,2C,2F,2] | 
[V:1] _e'd'c'b.c'4_edcB.c4 | 
[V:2] [A,,2C,2^F,2][A,,2C,2F,2][A,,2C,2F,2][A,,2C,2F,2] [A,,2C,2F,2][A,,2C,2F,2][A,,2C,2F,2][A,,2C,2F,2] | 
[V:1] _EDCB,.C4_edcB cde^f | 
[V:2] [_A,,2C,2^F,2][A,,2C,2F,2][A,,2C,2F,2][A,,2C,2F,2] [A,,2C,2_E,2][A,,2C,2E,2][A,,2C,2][A,,2C,2] | 
[V:1] g2 [G2g2][G2g2][G2g2] [G2g2][G2g2][G2g2][G2g2] | 
[V:2] [G,,2B,,2] z2z4z8 | 
[V:1] [G2_B2^c2g2][G2B2c2g2][G2B2c2g2][G2B2c2g2] [G2B2c2g2][G2B2c2g2][G2B2c2g2][G2B2c2g2] | 
[V:2] z16 | 
[V:1] [G2B2d2g2][g4g'4][f4f'4][e4e'4][d2d'2]- | 
[V:2] [B,,2D,2][B,,2D,2][B,,2D,2][B,,2D,2] [B,,2D,2][B,,2D,2][B,,2D,2][B,,2D,2] | 
[V:1] [d2d'2][c4c'4][B4b4][A4a4][G2g2] | 
[V:2] [B,,2D,2][B,,2D,2][B,,2D,2][B,,2D,2] [B,,2D,2][B,,2D,2][^C,2E,2][C,2E,2] | 
[V:1] [Ff]DEF GAB^c dFGA Bcde | 
[V:2] F,6A,G, .F,2 z2z4[K:clef=treble] & D,8-D,2 z2z4 | 
[V:1] fdef gab^c' d'c'd'e' f'c'd'e' | 
[V:2] !accent!A4-AGFE.D4z4[K:clef=bass] | 
[V:1] f'2[f4f'4][e4e'4][d4d'4][c2c'2]- | 
[V:2] [A,,2C,2][A,,2C,2][A,,2C,2][A,,2C,2] [A,,2C,2][A,,2C,2][A,,2C,2][A,,2C,2] | 
[V:1] [c2c'2][B4b4][A4a4][G4g4][F2f2] | 
[V:2] [A,,2C,2][A,,2C,2][A,,2C,2][A,,2C,2] [A,,2C,2][A,,2C,2][B,,2D,2][B,,2D,2] | 
[V:1] [Ee]EFG ABcd eABc de^f^g | 
[V:2] C,8G,F, z2z4 | 
[V:1] ae^f^g abc'd' e'd'c'b abc'a | 
[V:2] E4-EDCB,.A,4z4 | 
[V:1] z FGA Bcde fBcd efga | 
[V:2] F,6A,G, .F,2 z2z4 & D,8-D,2 z2z4 | 
[V:1] bfga bc'd'e' f'e'd'c' bc'd'b | 
[V:2] !accent!F4-FEDCz4.B,4 | 
[V:1] z gab c'd'e'f' g'f'e'd' ^c'd'e'c' | 
[V:2] !accent!G4-GFED.^C4z4[K:clef=treble] | 
[V:1] z ^cde fgaf- f^de^f gabg- | 
[V:2] A4GFEDB4AGFE | 
[V:1] gefg abc'a- a^fga bc'd'b- | 
[V:2] c4BAGFd4cBAG | 
[V:1] b^gab c'd'e'c'- c'^abc' d'e'f'd' | 
[V:2] e4dcBAf4edcB | 
[V:1] z2 (3gc'g' z2 (3gc'g' z2 (3^gc'^g' z2 (3gc'g' | 
[V:2] (3Ece z2 (3Ece z2 (3Ece z2 (3Ece z2 | 
[V:1] aa'g'f' e'd'c'b agfe dcBA | 
[V:2] [F4c4f4]z4z8[K:clef=bass] | 
[V:1] ^GA=GF EDCB,[K:clef=bass] A,G,F,E, D,C,B,,A,, | 
[V:2] z4F,,,4-F,,,G,,,A,,,B,,, C,,D,,E,,F,, | 
[V:1] G,,C,B,,D, C,E,^D,F, E,G,^F,A, G,CB,D[K:clef=treble] | 
[V:2] [G,,,4C,,4E,,4]z4z8 | 
[V:1] CE^DF EG^FA GcBd ce^df | 
[V:2] z16[K:clef=treble] | 
[V:1] eg^fa .gc'bc' .ge'^d'e' .gc'bc' | 
[V:2] z4z e^de .GcBc .Gede | 
[V:1] .ge'^d'e' .gc'bc' .ge'd'e' .gc'bc' | 
[V:2] .GcBc .Ge^de .GcBc .Gede | 
[V:1] !fermata![b16f'16] | 
[V:2] !fermata![G16d16f16][K:clef=bass] | 
[V:1] !fermata![B16f16] | 
[V:2] !fermata![G,16D16F16] | 
[V:1] [G,8C8E8][F,4B,4D4][E,4A,4C4] | 
[V:2] [C,,8C,8][^G,,,4^G,,4][A,,,4A,,4] | 
[V:1] [^G,8B,8]A,8 | 
[V:2] [E,,8D,8][F,,8C,8] | 
[V:1] [F8G8B8][G4c4][A4c4d4] | 
[V:2] [D,8F,8G,8B,8][E,4G,4C4][F,4A,4C4D4] | 
[V:1] z8d4g2f2 & [G8c8e8]G8 | 
[V:2] [C8E8][B,8D8][K:clef=treble] & G,16 | 
[V:1] z4[f4b4d'4][c'4e'4][e4a4c'4] | 
[V:2] [c8e8][^G4B4d4][A4c4] | 
[V:1] [d8^g8b8][c8a8] | 
[V:2] [E8^G8B8][F8A8] | 
[V:1] g8a4!fermata!b4 & [c4e4][d8f8]-[d4f4] | 
[V:2] [C4E4]!fermata![D12F12][K:clef=bass] & G,16 | 
[V:1] .G16 & [C4E4][D12F12]- | 
[V:2] [C,4E,4][D,12F,12]- & G,,16- | 
[V:1] _A8!fermata!B8[K:clef=bass] & [D8F8]-[D8F8] | 
[V:2] !fermata![G,,16D,16F,16] | 
[V:1] .G,16 & [C,4E,4][D,12F,12]- | 
[V:2] [C,,4E,,4][D,,12F,,12]- & G,,,16- | 
[V:1] [D,8-F,8-A,8]!fermata![D,8F,8B,8] | 
[V:2] !fermata![G,,,16D,,16F,,16] | 
[V:1] [E,2C2][K:clef=treble] [C2E2][C2E2][C2E2] [C2E2][C2E2][C2E2][C2E2] | 
[V:2] [C,,2C,2] [C,2G,2][C,2G,2][C,2G,2] [C,2G,2][C,2G,2][C,2G,2][C,2G,2] | 
[V:1] [C2E2][C2E2][C2E2][C2E2] [C2E2][C2E2][D2^F2][D2F2] | 
[V:2] [C,2G,2][C,2G,2][C,2G,2][C,2G,2] [C,2G,2][C,2G,2][C,2A,2][C,2A,2] | 
[V:1] G2BA .G2 z2 c2ed .c2 z2 | 
[V:2] [B,,2D,2G,2][B,,2D,2G,2][B,,2D,2G,2][B,,2D,2G,2] [_B,,2C,2G,2][B,,2C,2G,2][B,,2C,2G,2][B,,2C,2G,2] | 
[V:1] f2ag .f2 z2 f'e'f'e' f'e'f'e' | 
[V:2] [A,,2C,2F,2][A,,2C,2F,2][A,,2C,2F,2][A,,2C,2F,2] [_A,,2C,2F,2][_A,,,2A,,2][A,,,2A,,2][A,,,2A,,2] | 
[V:1] f'e'd'c' bagf edcB AGFE | 
[V:2] [G,,,G,,]A,,,B,,,C,, D,,E,,F,,G,, A,,B,,C,D, E,F,G,A, | 
[V:1] .D4.[G4B4d4g4]z8 | 
[V:2] .[F,,4F,4].[G,,4B,,4D,4G,4]z8 | 
[V:1] .[E4G4c4e4]z4.[G4B4d4g4]z4 | 
[V:2] .[C,4E,4G,4C4]z4.[G,,4B,,4D,4G,4]z4 | 
[V:1] .[c4e4g4c'4]z4z8 |]  
[V:2] .[C,,4E,,4G,,4C,4]z4z8 |]  


